src/assets/icons/send.svg

<svg width="14" height="14" viewBox="0 0 14 14" fill="none" xmlns="http://www.w3.org/2000/svg">
<g id="send">
<g clip-path="url(#clip0_156_4490)">
<path id="Vector" d="M13.662 0.338309C13.3516 0.0279253 12.9012 -0.0784684 12.4845 0.0591244L0.786667 3.95892C0.34349 4.10691 0.0363091 4.50289 0.00351078 4.96846C-0.0300875 5.43404 0.2187 5.87002 0.636278 6.07961L5.48482 8.49229L7.9207 13.364C8.11749 13.7568 8.51427 14 8.94864 14C8.97584 14 9.00384 13.9992 9.03184 13.9976C9.49741 13.964 9.89339 13.656 10.0406 13.2144L13.9404 1.51585C14.078 1.09907 13.9724 0.648693 13.662 0.338309ZM1.28024 5.05967L11.4973 1.65344L5.8216 7.32914L1.28024 5.05967ZM8.94064 12.7185L6.67036 8.1779L12.3461 2.5022L8.94064 12.7185Z" fill="black"/>
</g>
</g>
<defs>
<clipPath id="clip0_156_4490">
<rect width="14" height="14" fill="white"/>
</clipPath>
</defs>
</svg>

<svg xmlns="http://www.w3.org/2000/svg" fill="none" viewBox="0 0 14 14"><g clip-path="url(#a)"><path fill="#000" d="M13.662.338c-.31-.31-.76-.416-1.178-.279L.788 3.96c-.444.148-.75.544-.783 1.01s.215.901.632 1.11l4.849 2.413 2.436 4.872a1.15 1.15 0 0 0 1.11.634 1.15 1.15 0 0 0 1.01-.784l3.9-11.698a1.15 1.15 0 0 0-.279-1.178M1.28 5.06l10.217-3.407L5.822 7.33zm7.66 7.659L6.67 8.178l5.676-5.676z"/></g><defs><clipPath id="a"><path fill="#fff" d="M0 0h14v14H0z"/></clipPath></defs></svg>
